X: 032108
T: Cockle Man (The)
C: Joe Liddy
Z: BB
S: "The Leitrim Fiddler" (Dublin 1981)
L: 1/8
M: 4/4
R: reel
Q: 1/4 = 180
K: D
AF | E2 BE FEDE | FEBd AGFD | E2 BE FEFA | dBAG FEDF |
E2 BE dEBE | BdAG FE D2 | B2 AB dfed | BdAF E2 :|
FA | Beed egfe | d2 Bd Adfd | Befd edfe | dBAF E2 FA |
Beed fded | BdAF DEFA | B2 AB dfed | BdAF E2 de |
fded BdAB | defb afed | B2 Ad fded | BdAF E2 de |
fded Bdfe | fbaf edBd | fdeB dfed | BDAF D4 ||
